packages/icons/src/svgs/uncategorized/Dropbox.svg

<svg role="img" xmlns="http://www.w3.org/2000/svg" aria-hidden="true" viewBox="0 0 32 32">
  <title>Dropbox</title>
  <path
    d="M4.99976 0L0 3.1875L4.99976 6.375L0 9.5625L4.99976 12.75L10.0003 9.56252L15.0001 12.75L19.9998 9.5625L15.0001 6.375L19.9998 3.1875L15.0001 0L10.0003 3.18748L4.99976 0ZM15.0001 6.375L10.0003 9.56248L4.99976 6.375L10.0003 3.18752L15.0001 6.375ZM10.0001 17L4.99949 13.8125L10.0001 10.625L14.9999 13.8125L10.0001 17Z"
    fill="currentColor"
    stroke="none"
  ></path>
</svg>

<svg xmlns="http://www.w3.org/2000/svg" aria-hidden="true" viewBox="0 0 32 32">
    <title>
        Dropbox
    </title>
    <path fill="currentColor" d="M5 0L0 3.188l5 3.187-5 3.188 5 3.187 5-3.187 5 3.187 5-3.188-5-3.187 5-3.188L15 0l-5 3.187L5 0zm10 6.375l-5 3.187-5-3.187 5-3.187 5 3.187zM10 17l-5-3.188 5-3.187 5 3.188L10 17z"/>
</svg>
